dist/images/icons/user_logout.svg

<svg width="44" height="40" viewBox="0 0 44 40" fill="none" xmlns="http://www.w3.org/2000/svg">
<path d="M2.2002 6.60001L41.8002 6.60001" stroke="#555555" stroke-width="2" stroke-linecap="round" stroke-linejoin="round"/>
<path d="M4.4002 37.4L39.6002 37.4C40.8152 37.4 41.8002 36.415 41.8002 35.2L41.8002 4.39998C41.8002 3.18495 40.8152 2.19998 39.6002 2.19998L4.4002 2.19998C3.18517 2.19998 2.2002 3.18496 2.2002 4.39998L2.2002 35.2C2.2002 36.415 3.18517 37.4 4.4002 37.4Z" stroke="#555555" stroke-width="2" stroke-linecap="round" stroke-linejoin="round"/>
<path d="M16.8925 25.6928C16.502 26.0834 16.502 26.7165 16.8925 27.107C17.283 27.4976 17.9162 27.4976 18.3067 27.107L16.8925 25.6928ZM27.1066 18.3071C27.4972 17.9166 27.4972 17.2834 27.1066 16.8929C26.7161 16.5024 26.083 16.5024 25.6924 16.8929L27.1066 18.3071ZM18.3067 27.107L27.1066 18.3071L25.6924 16.8929L16.8925 25.6928L18.3067 27.107Z" fill="#555555"/>
<path d="M18.3067 16.893C17.9162 16.5024 17.283 16.5024 16.8925 16.893C16.502 17.2835 16.502 17.9166 16.8925 18.3072L18.3067 16.893ZM25.6924 27.1071C26.083 27.4976 26.7161 27.4976 27.1066 27.1071C27.4972 26.7166 27.4972 26.0834 27.1066 25.6929L25.6924 27.1071ZM16.8925 18.3072L25.6924 27.1071L27.1066 25.6929L18.3067 16.893L16.8925 18.3072Z" fill="#555555"/>
</svg>

<svg width="44" height="40" fill="none" xmlns="http://www.w3.org/2000/svg"><path d="M2.2 6.6h39.6M4.4 37.4h35.2a2.2 2.2 0 002.2-2.2V4.4a2.2 2.2 0 00-2.2-2.2H4.4a2.2 2.2 0 00-2.2 2.2v30.8a2.2 2.2 0 002.2 2.2z" stroke="#555" stroke-width="2" stroke-linecap="round" stroke-linejoin="round"/><path d="M16.892 25.693a1 1 0 001.415 1.414l-1.415-1.414zm10.215-7.386a1 1 0 10-1.415-1.414l1.415 1.414zm-8.8 8.8l8.8-8.8-1.415-1.414-8.8 8.8 1.415 1.414z" fill="#555"/><path d="M18.307 16.893a1 1 0 10-1.415 1.414l1.415-1.414zm7.385 10.214a1 1 0 001.415-1.414l-1.415 1.414zm-8.8-8.8l8.8 8.8 1.415-1.414-8.8-8.8-1.415 1.414z" fill="#555"/></svg>
